X: 185
T: Downfall of a Ginn a Hornpipe
M:3/2
L:1/8
C:Ravenscroft
S: 8: MCJLSH3 http://www.cpartington.plus.com/links/Walsh.abc
Z: Pete Stewart 2004
B: Walsh "Third Book of the most Celebrated jiggs, Lancashire hornpipes, ..."
K:G
E4G4B4 | e2dc BAGF G2E2 | gfeg fe^dfe2B2 | A2cB AGFE^D2B,2 |
E4G4B4 | e2dc BAGFG2E2 | gfeg fe^dfe2BA | GFEG B,2^D2E4 ||
G4B4d4 | g2fe dcBA B2G2 | bagb agfa g2dc | BAGBD2F2G4 |
BA^G^F EdcB c2A2 | AGFE DcBA B2G2 | gfeg fe^dfe2BA | GFEGB,2^D2E4 ||

%%sep 1 1 500
%%sep 1 1 500
